src/pos-icons/emoticon-neutral.svg

<svg height="24" viewBox="0 0 24 24" width="24" xmlns="http://www.w3.org/2000/svg"><path d="m12 2a10 10 0 0 0 -10 10 10 10 0 0 0 10 10 10 10 0 0 0 10-10 10 10 0 0 0 -10-10m-5 7.5a1.5 1.5 0 0 1 1.5-1.5 1.5 1.5 0 0 1 1.5 1.5 1.5 1.5 0 0 1 -1.5 1.5 1.5 1.5 0 0 1 -1.5-1.5m9 6.5h-8v-2h8zm-.5-5a1.5 1.5 0 0 1 -1.5-1.5 1.5 1.5 0 0 1 1.5-1.5 1.5 1.5 0 0 1 1.5 1.5 1.5 1.5 0 0 1 -1.5 1.5z"/></svg>

<?xml version="1.0" encoding="UTF-8"?><!DOCTYPE svg PUBLIC "-//W3C//DTD SVG 1.1//EN" "http://www.w3.org/Graphics/SVG/1.1/DTD/svg11.dtd"><svg xmlns="http://www.w3.org/2000/svg" xmlns:xlink="http://www.w3.org/1999/xlink" version="1.1" id="mdi-emoticon-neutral" width="24" height="24" viewBox="0 0 24 24"><path d="M12,2A10,10 0 0,0 2,12A10,10 0 0,0 12,22A10,10 0 0,0 22,12A10,10 0 0,0 12,2M7,9.5A1.5,1.5 0 0,1 8.5,8A1.5,1.5 0 0,1 10,9.5A1.5,1.5 0 0,1 8.5,11A1.5,1.5 0 0,1 7,9.5M16,16H8V14H16V16M15.5,11A1.5,1.5 0 0,1 14,9.5A1.5,1.5 0 0,1 15.5,8A1.5,1.5 0 0,1 17,9.5A1.5,1.5 0 0,1 15.5,11Z" /></svg>
